X: 35
M:9/8
L:1/8
K:G
e3 ce/f/g/e/ gce | dgf dcB c2G ::
e/f/gf e/f/gf edc | dgf dgf dcB |
e/f/gf e/f/gf edc | dgf dcB c2G ::
c/B/c/d/e/f/ gce Tc2e | d/c/B/c/d/B/ GB/c/d/B/ dBG |
c/B/c/d/e/f/ gce Tc2e | dgf dcB Tc2G :|
gce gce gce | gBd gBd gBd |
gce gce gce | dgf dcB Tc2G :|


